( Generated by XPlotterSVG version 1.1.2 )
M0
G21
G28
G90
( Setting feed rate )
G1 F800
M5
G0 X1 Y399 Z -1.000 F1200
M3 S255
G1 X12.98 Y399 Z -1.000 F800
G1 X12.98 Y359.2 Z -1.000 F800
G1 X1 Y359.2 Z -1.000 F800
G1 X1 Y399 Z -1.000 F800
M5

M5
G0 X1 Y399 Z -1.000 F1200
M3 S255
G1 X12.98 Y399 Z -1.000 F800
G1 X12.98 Y359.2 Z -1.000 F800
G1 X1 Y359.2 Z -1.000 F800
G1 X1 Y399 Z -1.000 F800
M5

M5
G0 X1 Y399 Z -1.000 F1200
M3 S255
G1 X12.98 Y399 Z -1.000 F800
G1 X12.98 Y359.2 Z -1.000 F800
G1 X1 Y359.2 Z -1.000 F800
G1 X1 Y399 Z -1.000 F800
M5

M5
G0 X1 Y399 Z -1.000 F1200
M3 S255
G1 X12.98 Y399 Z -1.000 F800
G1 X12.98 Y359.2 Z -1.000 F800
G1 X1 Y359.2 Z -1.000 F800
G1 X1 Y399 Z -1.000 F800
M5

M5
G0 X1 Y399 Z -1.000 F1200
M3 S255
G1 X12.98 Y399 Z -1.000 F800
G1 X12.98 Y359.2 Z -1.000 F800
G1 X1 Y359.2 Z -1.000 F800
G1 X1 Y399 Z -1.000 F800
M5

M5
G0 X1 Y399 Z -1.000 F1200
M3 S255
G1 X12.98 Y399 Z -1.000 F800
G1 X12.98 Y359.2 Z -1.000 F800
G1 X1 Y359.2 Z -1.000 F800
G1 X1 Y399 Z -1.000 F800
M5

M5
G0 X1 Y399 Z -1.000 F1200
M3 S255
G1 X12.98 Y399 Z -1.000 F800
G1 X12.98 Y359.2 Z -1.000 F800
G1 X1 Y359.2 Z -1.000 F800
G1 X1 Y399 Z -1.000 F800
M5

M5
G0 X1 Y399 Z -1.000 F1200
M3 S255
G1 X12.98 Y399 Z -1.000 F800
G1 X12.98 Y359.2 Z -1.000 F800
G1 X1 Y359.2 Z -1.000 F800
G1 X1 Y399 Z -1.000 F800
M5

M5
G0 X1 Y399 Z -1.000 F1200
M3 S255
G1 X12.98 Y399 Z -1.000 F800
G1 X12.98 Y359.2 Z -1.000 F800
G1 X1 Y359.2 Z -1.000 F800
G1 X1 Y399 Z -1.000 F800
M5

M5
G0 X1 Y399 Z -1.000 F1200
M3 S255
G1 X12.98 Y399 Z -1.000 F800
G1 X12.98 Y359.2 Z -1.000 F800
G1 X1 Y359.2 Z -1.000 F800
G1 X1 Y399 Z -1.000 F800
M5

( Setting feed rate )
G1 F100
M5
G0 X1 Y399 Z -1.000 F1200
M3 S255
G1 X12.98 Y399 Z -1.000 F100
G1 X12.98 Y359.2 Z -1.000 F100
G1 X1 Y359.2 Z -1.000 F100
G1 X1 Y399 Z -1.000 F100
M5

M5
G0 X1 Y399 Z -1.000 F1200
M3 S255
G1 X12.98 Y399 Z -1.000 F100
G1 X12.98 Y359.2 Z -1.000 F100
G1 X1 Y359.2 Z -1.000 F100
G1 X1 Y399 Z -1.000 F100
M5

M5
G0 X1 Y399 Z -1.000 F1200
M3 S255
G1 X12.98 Y399 Z -1.000 F100
G1 X12.98 Y359.2 Z -1.000 F100
G1 X1 Y359.2 Z -1.000 F100
G1 X1 Y399 Z -1.000 F100
M5

M5
G0 X1 Y399 Z -1.000 F1200
M3 S255
G1 X12.98 Y399 Z -1.000 F100
G1 X12.98 Y359.2 Z -1.000 F100
G1 X1 Y359.2 Z -1.000 F100
G1 X1 Y399 Z -1.000 F100
M5

M5
G0 X1 Y399 Z -1.000 F1200
M3 S255
G1 X12.98 Y399 Z -1.000 F100
G1 X12.98 Y359.2 Z -1.000 F100
G1 X1 Y359.2 Z -1.000 F100
G1 X1 Y399 Z -1.000 F100
M5

M5
G0 X1 Y399 Z -1.000 F1200
M3 S255
G1 X12.98 Y399 Z -1.000 F100
G1 X12.98 Y359.2 Z -1.000 F100
G1 X1 Y359.2 Z -1.000 F100
G1 X1 Y399 Z -1.000 F100
M5

M5
G0 X1 Y399 Z -1.000 F1200
M3 S255
G1 X12.98 Y399 Z -1.000 F100
G1 X12.98 Y359.2 Z -1.000 F100
G1 X1 Y359.2 Z -1.000 F100
G1 X1 Y399 Z -1.000 F100
M5

M5
G0 X1 Y399 Z -1.000 F1200
M3 S255
G1 X12.98 Y399 Z -1.000 F100
G1 X12.98 Y359.2 Z -1.000 F100
G1 X1 Y359.2 Z -1.000 F100
G1 X1 Y399 Z -1.000 F100
M5

M5
G0 X1 Y399 Z -1.000 F1200
M3 S255
G1 X12.98 Y399 Z -1.000 F100
G1 X12.98 Y359.2 Z -1.000 F100
G1 X1 Y359.2 Z -1.000 F100
G1 X1 Y399 Z -1.000 F100
M5

M5
G0 X1 Y399 Z -1.000 F1200
M3 S255
G1 X12.98 Y399 Z -1.000 F100
G1 X12.98 Y359.2 Z -1.000 F100
G1 X1 Y359.2 Z -1.000 F100
G1 X1 Y399 Z -1.000 F100
M5

( Setting feed rate )
G1 F400
M5
G0 X1 Y399 Z -1.000 F1200
M3 S255
G1 X12.98 Y399 Z -1.000 F400
G1 X12.98 Y359.2 Z -1.000 F400
G1 X1 Y359.2 Z -1.000 F400
G1 X1 Y399 Z -1.000 F400
M5

M5
G0 X1 Y399 Z -1.000 F1200
M3 S255
G1 X12.98 Y399 Z -1.000 F400
G1 X12.98 Y359.2 Z -1.000 F400
G1 X1 Y359.2 Z -1.000 F400
G1 X1 Y399 Z -1.000 F400
M5

M5
G0 X1 Y399 Z -1.000 F1200
M3 S255
G1 X12.98 Y399 Z -1.000 F400
G1 X12.98 Y359.2 Z -1.000 F400
G1 X1 Y359.2 Z -1.000 F400
G1 X1 Y399 Z -1.000 F400
M5

M5
G0 X1 Y399 Z -1.000 F1200
M3 S255
G1 X12.98 Y399 Z -1.000 F400
G1 X12.98 Y359.2 Z -1.000 F400
G1 X1 Y359.2 Z -1.000 F400
G1 X1 Y399 Z -1.000 F400
M5

M5
G0 X1 Y399 Z -1.000 F1200
M3 S255
G1 X12.98 Y399 Z -1.000 F400
G1 X12.98 Y359.2 Z -1.000 F400
G1 X1 Y359.2 Z -1.000 F400
G1 X1 Y399 Z -1.000 F400
M5

M5
G0 X1 Y399 Z -1.000 F1200
M3 S255
G1 X12.98 Y399 Z -1.000 F400
G1 X12.98 Y359.2 Z -1.000 F400
G1 X1 Y359.2 Z -1.000 F400
G1 X1 Y399 Z -1.000 F400
M5

M5
G0 X1 Y399 Z -1.000 F1200
M3 S255
G1 X12.98 Y399 Z -1.000 F400
G1 X12.98 Y359.2 Z -1.000 F400
G1 X1 Y359.2 Z -1.000 F400
G1 X1 Y399 Z -1.000 F400
M5

M5
G0 X1 Y399 Z -1.000 F1200
M3 S255
G1 X12.98 Y399 Z -1.000 F400
G1 X12.98 Y359.2 Z -1.000 F400
G1 X1 Y359.2 Z -1.000 F400
G1 X1 Y399 Z -1.000 F400
M5

M5
G0 X1 Y399 Z -1.000 F1200
M3 S255
G1 X12.98 Y399 Z -1.000 F400
G1 X12.98 Y359.2 Z -1.000 F400
G1 X1 Y359.2 Z -1.000 F400
G1 X1 Y399 Z -1.000 F400
M5

M5
G0 X1 Y399 Z -1.000 F1200
M3 S255
G1 X12.98 Y399 Z -1.000 F400
G1 X12.98 Y359.2 Z -1.000 F400
G1 X1 Y359.2 Z -1.000 F400
G1 X1 Y399 Z -1.000 F400
M5

G28
M1
